X: 252
T: Munster Bacon
M:6/8
R:Jig
L:1/8
K:D
"D"ABA DFA|dfe d2c|"Bm"~B3 dAF|"G"GFG EFG|
"D"ABA dcd|"G"~B3 efg|"D" faf "A" ede|1"D"fdc d2B:|2 fdc dfg||
"D"afd dfa|"G"bge "D"a2g|~f3 "G"ged|"A"ceA A2G|
"D"Fdd "A"cee|"D"dff "G"efg|"D"faf "A" ede|1"D"fdc dfg:|2 fdc d2B||


